X:115
T:The Donegal Reel
M:4/4
L:1/8
Q:150
C:Traditional
K:D
D3 E FDFA |dFAF BFAF |E3 F GFGA |BdAF EGFE |
D3 E FDFA |dFAF ABde |f2 e2 dBAG |F2 E2 D2 z2 ||
defg afdf |afdf a2 gf |edef gfed |cdef g2 fe |
defg afdf |afdf abag |f2 e2 dBAG |F2 E2 D2 z2 ||
%  ABC2Win Version 2.1 24/06/2002
